;FLAVOR:UltiGCode
;TIME:3477
;MATERIAL:3275
;MATERIAL2:0
;NOZZLE_DIAMETER:0.4
;Generated with Cura_SteamEngine 3.3.1
M82 ;absolute extrusion mode

G92 E0
G10
;LAYER_COUNT:202
;LAYER:0
M107
G0 F3600 X28.481 Y40.701 Z0.3
;TYPE:SKIRT
G11
G1 F1800 X28.923 Y40.398 E0.06431
G1 X29.406 Y40.163 E0.12876
G1 X29.917 Y40.003 E0.19302
G1 X30.447 Y39.92 E0.25739
G1 X30.734 Y39.909 E0.29186
G1 X89.266 Y39.91 E7.3157
G1 X89.801 Y39.95 E7.38008
G1 X90.324 Y40.069 E7.44444
G1 X90.823 Y40.264 E7.50873
G1 X91.288 Y40.532 E7.57314
G1 X91.708 Y40.865 E7.63745
G1 X92.074 Y41.257 E7.70181
G1 X92.377 Y41.699 E7.76612
G1 X92.612 Y42.182 E7.83057
G1 X92.772 Y42.693 E7.89483
G1 X92.855 Y43.223 E7.9592
G1 X92.866 Y43.51 E7.99367
G1 X92.866 Y76.491 E11.95139
G1 X92.826 Y77.026 E12.01577
G1 X92.707 Y77.549 E12.08013
G1 X92.512 Y78.048 E12.14442
G1 X92.244 Y78.513 E12.20883
G1 X91.911 Y78.933 E12.27315
G1 X91.519 Y79.299 E12.3375
G1 X91.077 Y79.602 E12.40181
G1 X90.594 Y79.837 E12.46626
G1 X90.083 Y79.997 E12.53052
G1 X89.553 Y80.08 E12.5949
G1 X89.26 Y80.091 E12.63008
G1 X86.251 Y80.086 E12.99116
G1 X85.716 Y80.045 E13.05555
G1 X85.355 Y79.971 E13.09977
G1 X82.974 Y79.355 E13.3949
G1 X77.567 Y78.189 E14.05865
G1 X74.958 Y77.746 E14.37621
G1 X69.519 Y77.051 E15.0342
G1 X64.087 Y76.667 E15.68767
G1 X58.627 Y76.59 E16.34293
G1 X53.17 Y76.823 E16.99837
G1 X47.756 Y77.362 E17.65126
G1 X42.359 Y78.21 E18.30685
G1 X39.721 Y78.739 E18.62971
G1 X34.58 Y79.987 E19.26455
G1 X34.051 Y80.075 E19.3289
G1 X33.733 Y80.089 E19.3671
G1 X30.736 Y80.091 E19.72674
G1 X30.202 Y80.051 E19.79099
G1 X29.679 Y79.933 E19.85533
G1 X29.179 Y79.738 E19.91973
G1 X28.714 Y79.471 E19.98408
G1 X28.294 Y79.138 E20.0484
G1 X27.928 Y78.746 E20.11275
G1 X27.624 Y78.304 E20.17713
G1 X27.389 Y77.822 E20.24148
G1 X27.228 Y77.31 E20.30588
G1 X27.146 Y76.78 E20.37024
G1 X27.134 Y76.491 E20.40495
G1 X27.134 Y43.509 E24.36279
G1 X27.174 Y42.974 E24.42717
G1 X27.293 Y42.451 E24.49153
G1 X27.488 Y41.952 E24.55582
G1 X27.756 Y41.487 E24.62023
G1 X28.089 Y41.067 E24.68455
G1 X28.481 Y40.701 E24.7489
G0 F3600 X28.87 Y40.908
G1 F1800 X29.303 Y40.647 E24.80957
G1 X29.771 Y40.457 E24.87018
G1 X30.264 Y40.344 E24.93088
G1 X30.734 Y40.309 E24.98743
G1 X89.266 Y40.31 E32.01127
G1 X89.77 Y40.35 E32.07194
G1 X90.261 Y40.469 E32.13257
G1 X90.728 Y40.664 E32.1933
G1 X91.158 Y40.929 E32.25391
G1 X91.541 Y41.259 E32.31458
G1 X91.867 Y41.646 E32.3753
G1 X92.128 Y42.079 E32.43597
G1 X92.318 Y42.547 E32.49658
G1 X92.431 Y43.04 E32.55727
G1 X92.466 Y43.51 E32.61383
G1 X92.466 Y76.491 E36.57155
G1 X92.426 Y76.995 E36.63222
G1 X92.307 Y77.486 E36.69285
G1 X92.113 Y77.953 E36.75353
G1 X91.847 Y78.383 E36.8142
G1 X91.517 Y78.766 E36.87487
G1 X91.13 Y79.092 E36.93559
G1 X90.697 Y79.353 E36.99626
G1 X90.229 Y79.543 E37.05687
G1 X89.736 Y79.656 E37.11757
G1 X89.261 Y79.691 E37.17472
G1 X86.252 Y79.686 E37.5358
G1 X85.748 Y79.645 E37.59648
G1 X85.455 Y79.584 E37.6324
G1 X83.057 Y78.963 E37.92965
G1 X77.654 Y77.799 E38.59288
G1 X75.006 Y77.349 E38.9152
G1 X69.561 Y76.653 E39.57392
G1 X64.103 Y76.267 E40.23051
G1 X58.615 Y76.19 E40.88914
G1 X53.15 Y76.423 E41.54553
G1 X47.707 Y76.965 E42.20192
G1 X42.269 Y77.819 E42.86248
G1 X39.669 Y78.341 E43.18071
G1 X34.486 Y79.599 E43.82072
G1 X33.986 Y79.679 E43.88149
G1 X33.733 Y79.689 E43.91187
G1 X30.736 Y79.691 E44.27151
G1 X30.232 Y79.651 E44.33218
G1 X29.741 Y79.533 E44.39278
G1 X29.274 Y79.338 E44.45351
G1 X28.844 Y79.073 E44.51412
G1 X28.461 Y78.743 E44.57479
G1 X28.134 Y78.357 E44.63549
G1 X27.873 Y77.924 E44.69616
G1 X27.683 Y77.456 E44.75678
G1 X27.569 Y76.963 E44.8175
G1 X27.534 Y76.491 E44.87429
G1 X27.534 Y43.509 E48.83213
G1 X27.574 Y43.005 E48.8928
G1 X27.693 Y42.514 E48.95343
G1 X27.887 Y42.047 E49.01411
G1 X28.153 Y41.617 E49.07479
G1 X28.483 Y41.234 E49.13545
G1 X28.87 Y40.908 E49.19617
G10
G0 F3600 X30.939 Y42.835
G0 X30.939 Y43.714
G0 X86.545 Y46.23
G0 X86.475 Y46.3
;TYPE:WALL-OUTER
G11
G1 F1800 X33.525 Y46.3 E55.55017
G1 X33.525 Y76.3 E59.15017
G1 X30.925 Y76.3 E59.46217
G1 X30.925 Y43.7 E63.37417
G1 X89.075 Y43.7 E70.35217
G1 X89.075 Y76.3 E74.26417
G1 X86.475 Y76.3 E74.57617
G1 X86.475 Y46.3 E78.17617
G0 F3600 X86.275 Y46.3
G0 X86.865 Y45.91
;TYPE:SKIN
G1 F1800 X33.135 Y45.91 E84.62377
G1 X33.135 Y75.91 E88.22377
G1 X31.315 Y75.91 E88.44217
G1 X31.315 Y44.09 E92.26057
G1 X88.685 Y44.09 E99.14497
G1 X88.685 Y75.91 E102.96337
G1 X86.865 Y75.91 E103.18177
G1 X86.865 Y45.91 E106.78177
G0 F3600 X88.504 Y44.38
G0 X88.449 Y44.325
G1 F1800 X88.166 Y44.608 E106.84853
G1 X88.574 Y45.016
G0 F3600 X88.504 Y45.512
G1 F1800 X87.262 Y44.27 E107.05931
G1 X87.192 Y44.2
G0 F3600 X86.696 Y44.27
G1 F1800 X88.504 Y46.077 E107.36605
G1 X88.574 Y46.147
G0 F3600 X88.504 Y46.643
G1 F1800 X86.131 Y44.27 E107.76876
G1 X86.061 Y44.2
G0 F3600 X85.565 Y44.27
G1 F1800 X87.024 Y45.729 E108.01636
G1 X87.094 Y45.799
G0 F3600 X87.044 Y45.749
G1 F1800 X88.504 Y47.209 E108.26413
G1 X88.574 Y47.279
G0 F3600 X88.504 Y47.774
G1 F1800 X87.044 Y46.314 E108.5119
G1 X86.974 Y46.244
G0 F3600 X87.044 Y46.88
G1 F1800 X88.504 Y48.34 E108.75967
G1 X88.574 Y48.41
G0 F3600 X88.504 Y48.906
G1 F1800 X87.044 Y47.446 E109.00744
G1 X86.974 Y47.376
G0 F3600 X87.044 Y48.011
G1 F1800 X88.504 Y49.472 E109.2553
G1 X88.574 Y49.542
G0 F3600 X88.504 Y50.037
G1 F1800 X87.044 Y48.577 E109.50307
G1 X86.974 Y48.507
G0 F3600 X87.044 Y49.143
G1 F1800 X88.504 Y50.603 E109.75084
G1 X88.574 Y50.673
G0 F3600 X88.504 Y51.169
G1 F1800 X87.044 Y49.708 E109.99869
G1 X86.974 Y49.638
G0 F3600 X87.044 Y50.274
G1 F1800 X88.504 Y51.734 E110.24646
G1 X88.574 Y51.804
G0 F3600 X88.504 Y52.3
G1 F1800 X87.044 Y50.84 E110.49423
G1 X86.974 Y50.77
G0 F3600 X87.044 Y51.405
G1 F1800 X88.504 Y52.866 E110.74209
G1 X88.574 Y52.936
G0 F3600 X88.504 Y53.431
G1 F1800 X87.044 Y51.971 E110.98986
G1 X86.974 Y51.901
G0 F3600 X87.044 Y52.537
G1 F1800 X88.504 Y53.997 E111.23763
G1 X88.574 Y54.067
G0 F3600 X88.504 Y54.563
G1 F1800 X87.044 Y53.103 E111.4854
G1 X86.974 Y53.033
G0 F3600 X87.044 Y53.668
G1 F1800 X88.504 Y55.128 E111.73317
G1 X88.574 Y55.198
G0 F3600 X88.504 Y55.694
G1 F1800 X87.044 Y54.234 E111.98094
G1 X86.974 Y54.164
G0 F3600 X87.044 Y54.8
G1 F1800 X88.504 Y56.26 E112.22871
G1 X88.574 Y56.33
G0 F3600 X88.504 Y56.825
G1 F1800 X87.044 Y55.365 E112.47648
G1 X86.974 Y55.295
G0 F3600 X87.044 Y55.931
G1 F1800 X88.504 Y57.391 E112.72425
G1 X88.574 Y57.461
G0 F3600 X88.504 Y57.957
G1 F1800 X87.044 Y56.497 E112.97202
G1 X86.974 Y56.427
G0 F3600 X87.044 Y57.062
G1 F1800 X88.504 Y58.522 E113.21979
G1 X88.574 Y58.592
G0 F3600 X88.504 Y59.088
G1 F1800 X87.044 Y57.628 E113.46756
G1 X86.974 Y57.558
G0 F3600 X87.044 Y58.194
G1 F1800 X88.504 Y59.654 E113.71533
G1 X88.574 Y59.724
G0 F3600 X88.504 Y60.22
G1 F1800 X87.044 Y58.759 E113.96318
G1 X86.974 Y58.689
G0 F3600 X87.044 Y59.325
G1 F1800 X88.504 Y60.785 E114.21096
G1 X88.574 Y60.855
G0 F3600 X88.504 Y61.351
G1 F1800 X87.044 Y59.891 E114.45873
G1 X86.974 Y59.821
G0 F3600 X87.044 Y60.456
G1 F1800 X88.504 Y61.917 E114.70658
G1 X88.574 Y61.987
G0 F3600 X88.504 Y62.482
G1 F1800 X87.044 Y61.022 E114.95435
G1 X86.974 Y60.952
G0 F3600 X87.044 Y61.588
G1 F1800 X88.504 Y63.048 E115.20212
G1 X88.574 Y63.118
G0 F3600 X88.504 Y63.614
G1 F1800 X87.044 Y62.153 E115.44998
G1 X86.974 Y62.083
G0 F3600 X87.044 Y62.719
G1 F1800 X88.504 Y64.179 E115.69775
G1 X88.574 Y64.249
G0 F3600 X88.504 Y64.745
G1 F1800 X87.044 Y63.285 E115.94552
G1 X86.974 Y63.215
G0 F3600 X87.044 Y63.851
G1 F1800 X88.504 Y65.311 E116.19329
G1 X88.574 Y65.381
G0 F3600 X88.504 Y65.876
G1 F1800 X87.044 Y64.416 E116.44106
G1 X86.974 Y64.346
G0 F3600 X87.044 Y64.982
G1 F1800 X88.504 Y66.442 E116.68883
G1 X88.574 Y66.512
G0 F3600 X88.504 Y67.008
G1 F1800 X87.044 Y65.548 E116.9366
G1 X86.974 Y65.478
G0 F3600 X87.044 Y66.113
G1 F1800 X88.504 Y67.573 E117.18437
G1 X88.574 Y67.643
G0 F3600 X88.504 Y68.139
G1 F1800 X87.044 Y66.679 E117.43214
G1 X86.974 Y66.609
G0 F3600 X87.044 Y67.245
G1 F1800 X88.504 Y68.705 E117.67991
G1 X88.574 Y68.775
G0 F3600 X88.504 Y69.271
G1 F1800 X87.044 Y67.81 E117.92776
G1 X86.974 Y67.74
G0 F3600 X87.044 Y68.376
G1 F1800 X88.504 Y69.836 E118.17553
G1 X88.574 Y69.906
G0 F3600 X88.504 Y70.402
G1 F1800 X87.044 Y68.942 E118.4233
G1 X86.974 Y68.872
G0 F3600 X87.044 Y69.507
G1 F1800 X88.504 Y70.968 E118.67116
G1 X88.574 Y71.038
G0 F3600 X88.504 Y71.533
G1 F1800 X87.044 Y70.073 E118.91893
G1 X86.974 Y70.003
G0 F3600 X87.044 Y70.639
G1 F1800 X88.504 Y72.099 E119.1667
G1 X88.574 Y72.169
G0 F3600 X88.504 Y72.665
G1 F1800 X87.044 Y71.204 E119.41455
G1 X86.974 Y71.134
G0 F3600 X87.044 Y71.77
G1 F1800 X88.504 Y73.23 E119.66232
G1 X88.574 Y73.3
G0 F3600 X88.504 Y73.796
G1 F1800 X87.044 Y72.336 E119.91009
G1 X86.974 Y72.266
G0 F3600 X87.044 Y72.902
G1 F1800 X88.504 Y74.362 E120.15786
G1 X88.574 Y74.432
G0 F3600 X88.504 Y74.927
G1 F1800 X87.044 Y73.467 E120.40563
G1 X86.974 Y73.397
G0 F3600 X87.044 Y74.033
G1 F1800 X88.504 Y75.493 E120.65341
G1 X88.574 Y75.563
G0 F3600 X88.174 Y75.729
G1 F1800 X87.044 Y74.599 E120.84517
G1 X86.974 Y74.529
G0 F3600 X87.044 Y75.164
G1 F1800 X87.609 Y75.729 E120.94106
G0 F3600 X86.458 Y45.729
G1 F1800 X84.999 Y44.27 E121.18866
G1 X84.929 Y44.2
G0 F3600 X84.434 Y44.27
G1 F1800 X85.892 Y45.729 E121.43617
G1 X85.962 Y45.799
G0 F3600 X85.327 Y45.729
G1 F1800 X83.868 Y44.27 E121.68377
G1 X83.798 Y44.2
G0 F3600 X83.302 Y44.27
G1 F1800 X84.761 Y45.729 E121.93137
G1 X84.831 Y45.799
G0 F3600 X84.195 Y45.729
G1 F1800 X82.737 Y44.27 E122.17889
G1 X82.667 Y44.2
G0 F3600 X82.171 Y44.27
G1 F1800 X83.63 Y45.729 E122.42649
G1 X83.7 Y45.799
G0 F3600 X83.064 Y45.729
G1 F1800 X81.605 Y44.27 E122.67409
G1 X81.535 Y44.2
G0 F3600 X81.04 Y44.27
G1 F1800 X82.498 Y45.729 E122.92161
G1 X82.568 Y45.799
G0 F3600 X81.933 Y45.729
G1 F1800 X80.474 Y44.27 E123.16921
G1 X80.404 Y44.2
G0 F3600 X79.908 Y44.27
G1 F1800 X81.367 Y45.729 E123.41681
G1 X81.437 Y45.799
G0 F3600 X80.801 Y45.729
G1 F1800 X79.343 Y44.27 E123.66432
G1 X79.273 Y44.2
G0 F3600 X78.777 Y44.27
G1 F1800 X80.236 Y45.729 E123.91192
G1 X80.306 Y45.799
G0 F3600 X79.67 Y45.729
G1 F1800 X78.211 Y44.27 E124.15952
G1 X78.141 Y44.2
G0 F3600 X77.645 Y44.27
G1 F1800 X79.104 Y45.729 E124.40712
G1 X79.174 Y45.799
G0 F3600 X78.539 Y45.729
G1 F1800 X77.08 Y44.27 E124.65472
G1 X77.01 Y44.2
G0 F3600 X76.514 Y44.27
G1 F1800 X77.973 Y45.729 E124.90232
G1 X78.043 Y45.799
G0 F3600 X77.407 Y45.729
G1 F1800 X75.948 Y44.27 E125.14993
G1 X75.878 Y44.2
G0 F3600 X75.383 Y44.27
G1 F1800 X76.842 Y45.729 E125.39753
G1 X76.912 Y45.799
G0 F3600 X76.276 Y45.729
G1 F1800 X74.817 Y44.27 E125.64513
G1 X74.747 Y44.2
G0 F3600 X74.251 Y44.27
G1 F1800 X75.71 Y45.729 E125.89273
G1 X75.78 Y45.799
G0 F3600 X75.144 Y45.729
G1 F1800 X73.686 Y44.27 E126.14024
G1 X73.616 Y44.2
G0 F3600 X73.12 Y44.27
G1 F1800 X74.579 Y45.729 E126.38784
G1 X74.649 Y45.799
G0 F3600 X74.013 Y45.729
G1 F1800 X72.554 Y44.27 E126.63544
G1 X72.484 Y44.2
G0 F3600 X71.989 Y44.27
G1 F1800 X73.447 Y45.729 E126.88296
G1 X73.517 Y45.799
G0 F3600 X72.882 Y45.729
G1 F1800 X71.423 Y44.27 E127.13056
G1 X71.353 Y44.2
G0 F3600 X70.857 Y44.27
G1 F1800 X72.316 Y45.729 E127.37816
G1 X72.386 Y45.799
G0 F3600 X71.75 Y45.729
G1 F1800 X70.292 Y44.27 E127.62568
G1 X70.222 Y44.2
G0 F3600 X69.726 Y44.27
G1 F1800 X71.185 Y45.729 E127.87328
G1 X71.255 Y45.799
G0 F3600 X70.619 Y45.729
G1 F1800 X69.16 Y44.27 E128.12088
G1 X69.09 Y44.2
G0 F3600 X68.595 Y44.27
G1 F1800 X70.053 Y45.729 E128.36839
G1 X70.123 Y45.799
G0 F3600 X69.488 Y45.729
G1 F1800 X68.029 Y44.27 E128.61599
G1 X67.959 Y44.2
G0 F3600 X67.463 Y44.27
G1 F1800 X68.922 Y45.729 E128.86359
G1 X68.992 Y45.799
G0 F3600 X68.356 Y45.729
G1 F1800 X66.897 Y44.27 E129.11119
G1 X66.827 Y44.2
G0 F3600 X66.332 Y44.27
G1 F1800 X67.791 Y45.729 E129.35879
G1 X67.861 Y45.799
G0 F3600 X67.225 Y45.729
G1 F1800 X65.766 Y44.27 E129.6064
G1 X65.696 Y44.2
G0 F3600 X65.2 Y44.27
G1 F1800 X66.659 Y45.729 E129.854
G1 X66.729 Y45.799
G0 F3600 X66.093 Y45.729
G1 F1800 X64.635 Y44.27 E130.10151
G1 X64.565 Y44.2
G0 F3600 X64.069 Y44.27
G1 F1800 X65.528 Y45.729 E130.34911
G1 X65.598 Y45.799
G0 F3600 X64.962 Y45.729
G1 F1800 X63.503 Y44.27 E130.59671
G1 X63.433 Y44.2
G0 F3600 X62.938 Y44.27
G1 F1800 X64.396 Y45.729 E130.84423
G1 X64.466 Y45.799
G0 F3600 X63.831 Y45.729
G1 F1800 X62.372 Y44.27 E131.09183
G1 X62.302 Y44.2
G0 F3600 X61.806 Y44.27
G1 F1800 X63.265 Y45.729 E131.33943
G1 X63.335 Y45.799
G0 F3600 X62.699 Y45.729
G1 F1800 X61.241 Y44.27 E131.58694
G1 X61.171 Y44.2
G0 F3600 X60.675 Y44.27
G1 F1800 X62.134 Y45.729 E131.83455
G1 X62.204 Y45.799
G0 F3600 X61.568 Y45.729
G1 F1800 X60.109 Y44.27 E132.08215
G1 X60.039 Y44.2
G0 F3600 X59.543 Y44.269
G1 F1800 X61.002 Y45.729 E132.32983
G1 X61.072 Y45.799
G0 F3600 X60.437 Y45.729
G1 F1800 X58.977 Y44.269 E132.5776
G1 X58.907 Y44.199
G0 F3600 X58.411 Y44.269
G1 F1800 X59.871 Y45.729 E132.82537
G1 X59.941 Y45.799
G0 F3600 X59.305 Y45.729
G1 F1800 X57.846 Y44.269 E133.07306
G1 X57.776 Y44.199
G0 F3600 X57.28 Y44.269
G1 F1800 X58.74 Y45.729 E133.32083
G1 X58.81 Y45.799
G0 F3600 X58.174 Y45.729
G1 F1800 X56.714 Y44.269 E133.5686
G1 X56.644 Y44.199
G0 F3600 X56.149 Y44.269
G1 F1800 X57.608 Y45.729 E133.81628
G1 X57.678 Y45.799
G0 F3600 X57.043 Y45.729
G1 F1800 X55.583 Y44.269 E134.06405
G1 X55.513 Y44.199
G0 F3600 X55.017 Y44.269
G1 F1800 X56.477 Y45.729 E134.31182
G1 X56.547 Y45.799
G0 F3600 X55.911 Y45.729
G1 F1800 X54.452 Y44.269 E134.55951
G1 X54.382 Y44.199
G0 F3600 X53.886 Y44.269
G1 F1800 X55.345 Y45.729 E134.80719
G1 X55.415 Y45.799
G0 F3600 X54.78 Y45.729
G1 F1800 X53.32 Y44.269 E135.05496
G1 X53.25 Y44.199
G0 F3600 X52.755 Y44.269
G1 F1800 X54.214 Y45.729 E135.30265
G1 X54.284 Y45.799
G0 F3600 X53.648 Y45.729
G1 F1800 X52.189 Y44.269 E135.55034
G1 X52.119 Y44.199
G0 F3600 X51.623 Y44.269
G1 F1800 X53.083 Y45.729 E135.79811
G1 X53.153 Y45.799
G0 F3600 X52.517 Y45.729
G1 F1800 X51.058 Y44.269 E136.04579
G1 X50.988 Y44.199
G0 F3600 X50.492 Y44.269
G1 F1800 X51.951 Y45.729 E136.29348
G1 X52.021 Y45.799
G0 F3600 X51.386 Y45.729
G1 F1800 X49.926 Y44.269 E136.54125
G1 X49.856 Y44.199
G0 F3600 X49.361 Y44.269
G1 F1800 X50.82 Y45.729 E136.78893
G1 X50.89 Y45.799
G0 F3600 X50.254 Y45.729
G1 F1800 X48.795 Y44.269 E137.03662
G1 X48.725 Y44.199
G0 F3600 X48.229 Y44.269
G1 F1800 X49.689 Y45.729 E137.28439
G1 X49.759 Y45.799
G0 F3600 X49.123 Y45.729
G1 F1800 X47.663 Y44.269 E137.53216
G1 X47.593 Y44.199
G0 F3600 X47.098 Y44.269
G1 F1800 X48.557 Y45.729 E137.77984
G1 X48.627 Y45.799
G0 F3600 X47.992 Y45.729
G1 F1800 X46.532 Y44.269 E138.02761
G1 X46.462 Y44.199
G0 F3600 X45.966 Y44.269
G1 F1800 X47.426 Y45.729 E138.27538
G1 X47.496 Y45.799
G0 F3600 X46.86 Y45.729
G1 F1800 X45.401 Y44.269 E138.52307
G1 X45.331 Y44.199
G0 F3600 X44.835 Y44.269
G1 F1800 X46.294 Y45.729 E138.77075
G1 X46.364 Y45.799
G0 F3600 X45.729 Y45.729
G1 F1800 X44.269 Y44.269 E139.01852
G1 X44.199 Y44.199
G0 F3600 X43.704 Y44.269
G1 F1800 X45.163 Y45.729 E139.26621
G1 X45.233 Y45.799
G0 F3600 X44.597 Y45.729
G1 F1800 X43.138 Y44.269 E139.51389
G1 X43.068 Y44.199
G0 F3600 X42.572 Y44.269
G1 F1800 X44.032 Y45.729 E139.76167
G1 X44.102 Y45.799
G0 F3600 X43.466 Y45.729
G1 F1800 X42.007 Y44.269 E140.00935
G1 X41.937 Y44.199
G0 F3600 X41.441 Y44.269
G1 F1800 X42.9 Y45.729 E140.25704
G1 X42.97 Y45.799
G0 F3600 X42.335 Y45.729
G1 F1800 X40.875 Y44.269 E140.50481
G1 X40.805 Y44.199
G0 F3600 X40.31 Y44.269
G1 F1800 X41.769 Y45.729 E140.75249
G1 X41.839 Y45.799
G0 F3600 X41.203 Y45.729
G1 F1800 X39.744 Y44.269 E141.00018
G1 X39.674 Y44.199
G0 F3600 X39.178 Y44.269
G1 F1800 X40.638 Y45.729 E141.24795
G1 X40.708 Y45.799
G0 F3600 X40.072 Y45.729
G1 F1800 X38.612 Y44.269 E141.49572
G1 X38.542 Y44.199
G0 F3600 X38.047 Y44.269
G1 F1800 X39.506 Y45.729 E141.7434
G1 X39.576 Y45.799
G0 F3600 X38.941 Y45.729
G1 F1800 X37.481 Y44.269 E141.99117
G1 X37.411 Y44.199
G0 F3600 X36.915 Y44.269
G1 F1800 X38.375 Y45.729 E142.23894
G1 X38.445 Y45.799
G0 F3600 X37.809 Y45.729
G1 F1800 X36.35 Y44.269 E142.48663
G1 X36.28 Y44.199
G0 F3600 X35.784 Y44.269
G1 F1800 X37.244 Y45.729 E142.7344
G1 X37.314 Y45.799
G0 F3600 X36.678 Y45.729
