;FLAVOR:UltiGCode
;TIME:4979
;MATERIAL:8691
;MATERIAL2:0
;NOZZLE_DIAMETER:0.4
;Generated with Cura_SteamEngine 3.3.1
M82 ;absolute extrusion mode

G92 E0
G10
;LAYER_COUNT:220
;LAYER:0
M107
G0 F3600 X29.298 Y46.748 Z0.3
;TYPE:SKIRT
G11
G1 F1800 X29.78 Y46.513 E0.06435
G1 X30.292 Y46.353 E0.12872
G1 X30.822 Y46.27 E0.19309
G1 X31.109 Y46.259 E0.22756
G1 X88.891 Y46.26 E7.1614
G1 X89.426 Y46.3 E7.22578
G1 X89.949 Y46.419 E7.29014
G1 X90.448 Y46.614 E7.35443
G1 X90.913 Y46.882 E7.41884
G1 X91.333 Y47.215 E7.48316
G1 X91.699 Y47.607 E7.54751
G1 X92.002 Y48.049 E7.61182
G1 X92.237 Y48.532 E7.67627
G1 X92.397 Y49.043 E7.74053
G1 X92.48 Y49.573 E7.8049
G1 X92.491 Y49.86 E7.83937
G1 X92.49 Y70.148 E10.27393
G1 X92.45 Y70.683 E10.33831
G1 X92.331 Y71.206 E10.40267
G1 X92.228 Y71.496 E10.4396
G1 X90.007 Y76.994 E11.15116
G1 X89.126 Y79.499 E11.46981
G1 X87.523 Y84.736 E12.12703
G1 X86.221 Y90.043 E12.78276
G1 X85.685 Y92.707 E13.10884
G1 X85.231 Y95.364 E13.4323
G1 X84.535 Y100.793 E14.08912
G1 X84.097 Y107.38 E14.8813
G1 X84.022 Y107.911 E14.94565
G1 X83.868 Y108.425 E15.01004
G1 X83.64 Y108.91 E15.07435
G1 X83.343 Y109.356 E15.13865
G1 X82.982 Y109.753 E15.20305
G1 X82.566 Y110.092 E15.26744
G1 X82.105 Y110.366 E15.3318
G1 X81.608 Y110.568 E15.39617
G1 X81.087 Y110.694 E15.4605
G1 X80.505 Y110.741 E15.53056
G1 X35.494 Y110.741 E20.93188
G1 X34.959 Y110.701 E20.99626
G1 X34.436 Y110.582 E21.06063
G1 X33.937 Y110.387 E21.12492
G1 X33.472 Y110.119 E21.18932
G1 X33.052 Y109.786 E21.25364
G1 X32.686 Y109.394 E21.318
G1 X32.383 Y108.952 E21.3823
G1 X32.148 Y108.469 E21.44676
G1 X31.988 Y107.958 E21.51101
G1 X31.905 Y107.428 E21.57539
G1 X31.894 Y107.145 E21.60937
G1 X31.885 Y99.504 E22.5263
G1 X31.729 Y93.976 E23.18992
G1 X31.268 Y88.553 E23.84303
G1 X30.499 Y83.159 E24.49685
G1 X29.419 Y77.77 E25.15639
G1 X28.784 Y75.183 E25.47605
G1 X27.644 Y71.116 E25.9829
G1 X27.538 Y70.591 E26.04717
G1 X27.51 Y70.145 E26.10079
G1 X27.509 Y49.859 E28.53511
G1 X27.549 Y49.324 E28.59949
G1 X27.668 Y48.801 E28.66386
G1 X27.863 Y48.302 E28.72815
G1 X28.13 Y47.837 E28.79249
G1 X28.464 Y47.417 E28.85688
G1 X28.856 Y47.051 E28.92124
G1 X29.298 Y46.748 E28.98555
G0 F3600 X29.678 Y46.997
G1 F1800 X30.146 Y46.807 E29.04616
G1 X30.639 Y46.694 E29.10685
G1 X31.109 Y46.659 E29.16341
G1 X88.891 Y46.66 E36.09725
G1 X89.395 Y46.7 E36.15792
G1 X89.886 Y46.819 E36.21854
G1 X90.353 Y47.014 E36.27927
G1 X90.783 Y47.279 E36.33989
G1 X91.166 Y47.609 E36.40055
G1 X91.492 Y47.996 E36.46127
G1 X91.753 Y48.429 E36.52194
G1 X91.943 Y48.897 E36.58255
G1 X92.056 Y49.39 E36.64325
G1 X92.091 Y49.86 E36.6998
G1 X92.09 Y70.148 E39.13436
G1 X92.05 Y70.652 E39.19503
G1 X91.857 Y71.346 E39.28148
G1 X89.636 Y76.844 E39.99303
G1 X88.748 Y79.368 E40.31411
G1 X87.138 Y84.629 E40.97433
G1 X85.829 Y89.966 E41.63376
G1 X85.285 Y92.665 E41.96415
G1 X84.837 Y95.292 E42.28394
G1 X84.138 Y100.748 E42.94401
G1 X83.698 Y107.353 E43.73837
G1 X83.625 Y107.854 E43.79912
G1 X83.473 Y108.336 E43.85977
G1 X83.248 Y108.789 E43.92047
G1 X82.954 Y109.2 E43.98111
G1 X82.6 Y109.56 E44.04169
G1 X82.192 Y109.86 E44.10246
G1 X81.743 Y110.092 E44.16311
G1 X81.263 Y110.25 E44.22375
G1 X80.764 Y110.331 E44.28442
G1 X80.505 Y110.341 E44.31552
G1 X35.494 Y110.341 E49.71684
G1 X34.99 Y110.301 E49.77751
G1 X34.499 Y110.182 E49.83813
G1 X34.032 Y109.988 E49.89882
G1 X33.602 Y109.722 E49.95949
G1 X33.219 Y109.392 E50.02016
G1 X32.893 Y109.005 E50.08088
G1 X32.632 Y108.572 E50.14155
G1 X32.442 Y108.104 E50.20216
G1 X32.329 Y107.611 E50.26286
G1 X32.294 Y107.145 E50.31893
G1 X32.285 Y99.493 E51.23717
G1 X32.129 Y93.965 E51.9008
G1 X31.664 Y88.499 E52.55909
G1 X30.893 Y83.093 E53.21437
G1 X29.81 Y77.688 E53.87586
G1 X29.171 Y75.084 E54.19761
G1 X28.029 Y71.009 E54.70545
G1 X27.931 Y70.512 E54.76624
G1 X27.91 Y70.145 E54.81035
G1 X27.909 Y49.859 E57.24467
G1 X27.949 Y49.355 E57.30534
G1 X28.068 Y48.864 E57.36597
G1 X28.262 Y48.397 E57.42665
G1 X28.528 Y47.967 E57.48733
G1 X28.858 Y47.584 E57.548
G1 X29.245 Y47.258 E57.60872
G1 X29.678 Y46.997 E57.66939
G10
G0 F3600 X31.714 Y49.185
G0 X31.714 Y50.464
G0 X88.23 Y69.48
G0 X88.3 Y69.55
;TYPE:WALL-INNER
G11
G1 F1800 X31.7 Y69.55 E64.46139
G1 X31.7 Y50.45 E66.75339
G1 X88.3 Y50.45 E73.54539
G1 X88.3 Y69.55 E75.83739
G0 F3600 X88.7 Y69.95
;TYPE:WALL-OUTER
G1 F1800 X31.3 Y69.95 E82.72539
G1 X31.3 Y50.05 E85.11339
G1 X88.7 Y50.05 E92.00139
G1 X88.7 Y69.95 E94.38939
G0 F3600 X88.5 Y69.95
G0 X88.23 Y69.48
G0 X87.91 Y69.16
;TYPE:SKIN
G1 F1800 X32.09 Y69.16 E101.08779
G1 X32.09 Y50.84 E103.28619
G1 X87.91 Y50.84 E109.98459
G1 X87.91 Y69.16 E112.18299
G0 F3600 X87.729 Y51.525
G1 F1800 X87.224 Y51.02 E112.26869
G0 F3600 X86.658 Y51.02
G1 F1800 X87.729 Y52.091 E112.45044
G1 X87.799 Y52.161
G0 F3600 X87.729 Y52.656
G1 F1800 X86.093 Y51.02 E112.72808
G1 X86.023 Y50.95
G0 F3600 X85.527 Y51.02
G1 F1800 X87.729 Y53.222 E113.10177
G1 X87.799 Y53.292
G0 F3600 X87.729 Y53.788
G1 F1800 X84.961 Y51.02 E113.57152
G1 X84.891 Y50.95
G0 F3600 X84.396 Y51.02
G1 F1800 X87.729 Y54.353 E114.13715
G1 X87.799 Y54.423
G0 F3600 X87.729 Y54.919
G1 F1800 X83.83 Y51.02 E114.79883
G1 X83.76 Y50.95
G0 F3600 X83.264 Y51.02
G1 F1800 X87.729 Y55.485 E115.55656
G1 X87.799 Y55.555
G0 F3600 X87.729 Y56.05
G1 F1800 X82.698 Y51.02 E116.41027
G1 X82.628 Y50.95
G0 F3600 X82.133 Y51.02
G1 F1800 X87.729 Y56.616 E117.35994
G1 X87.799 Y56.686
G0 F3600 X87.729 Y57.182
G1 F1800 X81.567 Y51.02 E118.40567
G1 X81.497 Y50.95
G0 F3600 X81.001 Y51.02
G1 F1800 X87.729 Y57.747 E119.54736
G1 X87.799 Y57.817
G0 F3600 X87.729 Y58.313
G1 F1800 X80.436 Y51.02 E120.78502
G1 X80.366 Y50.95
G0 F3600 X79.87 Y51.02
G1 F1800 X87.729 Y58.879 E122.11874
G1 X87.799 Y58.949
G0 F3600 X87.729 Y59.445
G1 F1800 X79.304 Y51.02 E123.54851
G1 X79.234 Y50.95
G0 F3600 X78.739 Y51.02
G1 F1800 X87.729 Y60.01 E125.07416
G1 X87.799 Y60.08
G0 F3600 X87.729 Y60.576
G1 F1800 X78.173 Y51.02 E126.69587
G1 X78.103 Y50.95
G0 F3600 X77.607 Y51.02
G1 F1800 X87.729 Y61.142 E128.41363
G1 X87.799 Y61.212
G0 F3600 X87.729 Y61.707
G1 F1800 X77.042 Y51.02 E130.22728
G1 X76.972 Y50.95
G0 F3600 X76.476 Y51.02
G1 F1800 X87.729 Y62.273 E132.13697
G1 X87.799 Y62.343
G0 F3600 X87.729 Y62.839
G1 F1800 X75.91 Y51.02 E134.14272
G1 X75.84 Y50.95
G0 F3600 X75.345 Y51.02
G1 F1800 X87.729 Y63.404 E136.24436
G1 X87.799 Y63.474
G0 F3600 X87.729 Y63.97
G1 F1800 X74.779 Y51.02 E138.44205
G1 X74.709 Y50.95
G0 F3600 X74.213 Y51.02
G1 F1800 X87.729 Y64.536 E140.73579
G1 X87.799 Y64.606
G0 F3600 X87.729 Y65.101
G1 F1800 X73.647 Y51.02 E143.1255
G1 X73.577 Y50.95
G0 F3600 X73.082 Y51.02
G1 F1800 X87.729 Y65.667 E145.61118
G1 X87.799 Y65.737
G0 F3600 X87.729 Y66.233
G1 F1800 X72.516 Y51.02 E148.19291
G1 X72.446 Y50.95
G0 F3600 X71.95 Y51.02
G1 F1800 X87.729 Y66.798 E150.87061
G1 X87.799 Y66.868
G0 F3600 X87.729 Y67.364
G1 F1800 X71.385 Y51.02 E153.64428
G1 X71.315 Y50.95
G0 F3600 X70.819 Y51.02
G1 F1800 X87.729 Y67.93 E156.514
G1 X87.799 Y68
G0 F3600 X87.729 Y68.496
G1 F1800 X70.253 Y51.02 E159.47977
G1 X70.183 Y50.95
G0 F3600 X69.688 Y51.02
G1 F1800 X87.646 Y68.978 E162.52735
G1 X87.716 Y69.048
G0 F3600 X87.08 Y68.978
G1 F1800 X69.122 Y51.02 E165.57492
G1 X69.052 Y50.95
G0 F3600 X68.556 Y51.02
G1 F1800 X86.515 Y68.978 E168.62258
G1 X86.585 Y69.048
G0 F3600 X85.949 Y68.978
G1 F1800 X67.991 Y51.02 E171.67015
G1 X67.921 Y50.95
G0 F3600 X67.425 Y51.02
G1 F1800 X85.383 Y68.978 E174.71773
G1 X85.453 Y69.048
G0 F3600 X84.818 Y68.978
G1 F1800 X66.859 Y51.02 E177.76539
G1 X66.789 Y50.95
G0 F3600 X66.294 Y51.02
G1 F1800 X84.252 Y68.978 E180.81296
G1 X84.322 Y69.048
G0 F3600 X83.686 Y68.978
G1 F1800 X65.728 Y51.02 E183.86053
G1 X65.658 Y50.95
G0 F3600 X65.162 Y51.02
G1 F1800 X83.121 Y68.978 E186.90819
G1 X83.191 Y69.048
G0 F3600 X82.555 Y68.978
G1 F1800 X64.597 Y51.02 E189.95577
G1 X64.527 Y50.95
G0 F3600 X64.031 Y51.02
G1 F1800 X81.989 Y68.978 E193.00334
G1 X82.059 Y69.048
G0 F3600 X81.424 Y68.978
G1 F1800 X63.465 Y51.02 E196.051
G1 X63.395 Y50.95
G0 F3600 X62.899 Y51.02
G1 F1800 X80.858 Y68.978 E199.09866
G1 X80.928 Y69.048
G0 F3600 X80.292 Y68.978
G1 F1800 X62.334 Y51.02 E202.14623
G1 X62.264 Y50.95
G0 F3600 X61.768 Y51.02
G1 F1800 X79.726 Y68.978 E205.1938
G1 X79.796 Y69.048
G0 F3600 X79.161 Y68.978
G1 F1800 X61.202 Y51.02 E208.24146
G1 X61.132 Y50.95
G0 F3600 X60.637 Y51.02
G1 F1800 X78.595 Y68.978 E211.28904
G1 X78.665 Y69.048
G0 F3600 X78.029 Y68.978
G1 F1800 X60.071 Y51.02 E214.33661
G1 X60.001 Y50.95
G0 F3600 X59.505 Y51.019
G1 F1800 X77.464 Y68.978 E217.38435
G1 X77.534 Y69.048
G0 F3600 X76.898 Y68.978
G1 F1800 X58.939 Y51.019 E220.4321
G1 X58.869 Y50.949
G0 F3600 X58.373 Y51.019
G1 F1800 X76.332 Y68.978 E223.47984
G1 X76.402 Y69.048
G0 F3600 X75.767 Y68.978
G1 F1800 X57.808 Y51.019 E226.52758
G1 X57.738 Y50.949
G0 F3600 X57.242 Y51.019
G1 F1800 X75.201 Y68.978 E229.57533
G1 X75.271 Y69.048
G0 F3600 X74.635 Y68.978
G1 F1800 X56.676 Y51.019 E232.62307
G1 X56.606 Y50.949
G0 F3600 X56.111 Y51.019
G1 F1800 X74.07 Y68.978 E235.67081
G1 X74.14 Y69.048
G0 F3600 X73.504 Y68.978
G1 F1800 X55.545 Y51.019 E238.71856
G1 X55.475 Y50.949
G0 F3600 X54.979 Y51.019
G1 F1800 X72.938 Y68.978 E241.7663
G1 X73.008 Y69.048
G0 F3600 X72.373 Y68.978
G1 F1800 X54.413 Y51.019 E244.81413
G1 X54.343 Y50.949
G0 F3600 X53.848 Y51.019
G1 F1800 X71.807 Y68.978 E247.86187
G1 X71.877 Y69.048
G0 F3600 X71.241 Y68.978
G1 F1800 X53.282 Y51.019 E250.90961
G1 X53.212 Y50.949
G0 F3600 X52.716 Y51.019
G1 F1800 X70.676 Y68.978 E253.95744
G1 X70.746 Y69.048
G0 F3600 X70.11 Y68.978
G1 F1800 X52.151 Y51.019 E257.00519
G1 X52.081 Y50.949
G0 F3600 X51.585 Y51.019
G1 F1800 X69.544 Y68.978 E260.05293
G1 X69.614 Y69.048
G0 F3600 X68.978 Y68.978
G1 F1800 X51.019 Y51.019 E263.10067
G1 X50.949 Y50.949
G0 F3600 X50.454 Y51.019
G1 F1800 X68.413 Y68.978 E266.14842
G1 X68.483 Y69.048
G0 F3600 X67.847 Y68.978
G1 F1800 X49.888 Y51.019 E269.19616
G1 X49.818 Y50.949
G0 F3600 X49.322 Y51.019
G1 F1800 X67.281 Y68.978 E272.2439
G1 X67.351 Y69.048
G0 F3600 X66.716 Y68.978
G1 F1800 X48.757 Y51.019 E275.29165
G1 X48.687 Y50.949
G0 F3600 X48.191 Y51.019
G1 F1800 X66.15 Y68.978 E278.33939
G1 X66.22 Y69.048
G0 F3600 X65.584 Y68.978
G1 F1800 X47.625 Y51.019 E281.38713
G1 X47.555 Y50.949
G0 F3600 X47.06 Y51.019
G1 F1800 X65.019 Y68.978 E284.43488
G1 X65.089 Y69.048
G0 F3600 X64.453 Y68.978
G1 F1800 X46.494 Y51.019 E287.48262
G1 X46.424 Y50.949
G0 F3600 X45.928 Y51.019
G1 F1800 X63.887 Y68.978 E290.53036
G1 X63.957 Y69.048
G0 F3600 X63.322 Y68.978
G1 F1800 X45.363 Y51.019 E293.57811
G1 X45.293 Y50.949
G0 F3600 X44.797 Y51.019
G1 F1800 X62.756 Y68.978 E296.62585
G1 X62.826 Y69.048
G0 F3600 X62.19 Y68.978
G1 F1800 X44.231 Y51.019 E299.67359
G1 X44.161 Y50.949
G0 F3600 X43.665 Y51.019
G1 F1800 X61.625 Y68.978 E302.72142
G1 X61.695 Y69.048
G0 F3600 X61.059 Y68.978
G1 F1800 X43.1 Y51.019 E305.76917
G1 X43.03 Y50.949
G0 F3600 X42.534 Y51.019
G1 F1800 X60.493 Y68.978 E308.81691
G1 X60.563 Y69.048
G0 F3600 X59.928 Y68.978
G1 F1800 X41.968 Y51.019 E311.86474
G1 X41.898 Y50.949
G0 F3600 X41.403 Y51.019
G1 F1800 X59.362 Y68.978 E314.91248
G1 X59.432 Y69.048
G0 F3600 X58.796 Y68.978
G1 F1800 X40.837 Y51.019 E317.96022
G1 X40.767 Y50.949
G0 F3600 X40.271 Y51.019
G1 F1800 X58.23 Y68.978 E321.00797
G1 X58.3 Y69.048
G0 F3600 X57.665 Y68.978
G1 F1800 X39.706 Y51.019 E324.05571
G1 X39.636 Y50.949
G0 F3600 X39.14 Y51.019
G1 F1800 X57.099 Y68.978 E327.10345
G1 X57.169 Y69.048
G0 F3600 X56.533 Y68.978
G1 F1800 X38.574 Y51.019 E330.1512
G1 X38.504 Y50.949
G0 F3600 X38.009 Y51.019
G1 F1800 X55.968 Y68.978 E333.19894
G1 X56.038 Y69.048
G0 F3600 X55.402 Y68.978
G1 F1800 X37.443 Y51.019 E336.24668
G1 X37.373 Y50.949
G0 F3600 X36.877 Y51.019
G1 F1800 X54.836 Y68.978 E339.29443
G1 X54.906 Y69.048
G0 F3600 X54.271 Y68.978
G1 F1800 X36.312 Y51.019 E342.34217
G1 X36.242 Y50.949
G0 F3600 X35.746 Y51.019
G1 F1800 X53.705 Y68.978 E345.38991
G1 X53.775 Y69.048
G0 F3600 X53.139 Y68.978
G1 F1800 X35.18 Y51.019 E348.43766
G1 X35.11 Y50.949
G0 F3600 X34.614 Y51.019
G1 F1800 X52.574 Y68.978 E351.48549
G1 X52.644 Y69.048
G0 F3600 X52.008 Y68.978
G1 F1800 X34.049 Y51.019 E354.53323
G1 X33.979 Y50.949
G0 F3600 X33.483 Y51.019
G1 F1800 X51.442 Y68.978 E357.58097
G1 X51.512 Y69.048
G0 F3600 X50.877 Y68.978
G1 F1800 X32.917 Y51.019 E360.6288
G1 X32.847 Y50.949
G0 F3600 X32.352 Y51.019
G1 F1800 X50.311 Y68.978 E363.67654
G1 X50.381 Y69.048
G0 F3600 X49.745 Y68.978
G1 F1800 X32.269 Y51.502 E366.64232
G1 X32.199 Y51.432
G0 F3600 X32.269 Y52.068
G1 F1800 X49.179 Y68.978 E369.51204
G1 X49.249 Y69.048
G0 F3600 X48.614 Y68.978
G1 F1800 X32.269 Y52.634 E372.28579
G1 X32.199 Y52.564
G0 F3600 X32.269 Y53.199
G1 F1800 X48.048 Y68.978 E374.96358
G1 X48.118 Y69.048
G0 F3600 X47.482 Y68.978
G1 F1800 X32.269 Y53.765 E377.54531
G1 X32.199 Y53.695
G0 F3600 X32.269 Y54.331
G1 F1800 X46.917 Y68.978 E380.03107
G1 X46.987 Y69.048
G0 F3600 X46.351 Y68.978
G1 F1800 X32.269 Y54.896 E382.42087
G1 X32.199 Y54.826
G0 F3600 X32.269 Y55.462
G1 F1800 X45.785 Y68.978 E384.71461
G1 X45.855 Y69.048
G0 F3600 X45.22 Y68.978
G1 F1800 X32.269 Y56.028 E386.91238
G1 X32.199 Y55.958
G0 F3600 X32.269 Y56.593
G1 F1800 X44.654 Y68.978 E389.01419
G1 X44.724 Y69.048
G0 F3600 X44.088 Y68.978
G1 F1800 X32.269 Y57.159 E391.01994
G1 X32.199 Y57.089
G0 F3600 X32.269 Y57.725
G1 F1800 X43.523 Y68.978 E392.92972
G1 X43.593 Y69.048
G0 F3600 X42.957 Y68.978
G1 F1800 X32.269 Y58.291 E394.74345
G1 X32.199 Y58.221
G0 F3600 X32.269 Y58.856
G1 F1800 X42.391 Y68.978 E396.46121
G1 X42.461 Y69.048
G0 F3600 X41.826 Y68.978
G1 F1800 X32.269 Y59.422 E398.083
G1 X32.199 Y59.352
G0 F3600 X32.269 Y59.988
G1 F1800 X41.26 Y68.978 E399.60874
G1 X41.33 Y69.048
G0 F3600 X40.694 Y68.978
G1 F1800 X32.269 Y60.553 E401.03851
G1 X32.199 Y60.483
G0 F3600 X32.269 Y61.119
G1 F1800 X40.129 Y68.978 E402.37231
G1 X40.199 Y69.048
G0 F3600 X39.563 Y68.978
G1 F1800 X32.269 Y61.685 E403.61006
G1 X32.199 Y61.615
G0 F3600 X32.269 Y62.25
G1 F1800 X38.997 Y68.978 E404.75184
G1 X39.067 Y69.048
G0 F3600 X38.431 Y68.978
G1 F1800 X32.269 Y62.816 E405.79757
G1 X32.199 Y62.746
G0 F3600 X32.269 Y63.382
G1 F1800 X37.866 Y68.978 E406.74732
G1 X37.936 Y69.048
G0 F3600 X37.3 Y68.978
G1 F1800 X32.269 Y63.947 E407.60111
G1 X32.199 Y63.877
G0 F3600 X32.269 Y64.513
G1 F1800 X36.734 Y68.978 E408.35885
G1 X36.804 Y69.048
G0 F3600 X36.169 Y68.978
G1 F1800 X32.269 Y65.079 E409.02061
G1 X32.199 Y65.009
G0 F3600 X32.269 Y65.644
G1 F1800 X35.603 Y68.978 E409.58641
G1 X35.673 Y69.048
G0 F3600 X35.037 Y68.978
G1 F1800 X32.269 Y66.21 E410.05616
G1 X32.199 Y66.14
G0 F3600 X32.269 Y66.776
G1 F1800 X34.472 Y68.978 E410.42993
G1 X34.542 Y69.048
G0 F3600 X33.906 Y68.978
G1 F1800 X32.269 Y67.342 E410.70766
G1 X32.199 Y67.272
G0 F3600 X32.269 Y67.907
G1 F1800 X33.34 Y68.978 E410.88941
G1 X33.41 Y69.048
G0 F3600 X32.775 Y68.978
G1 F1800 X32.269 Y68.473 E410.9752
G10
G0 F3600 X51.686 Y69.53
G0 X51.686 Y70.815
G0 X51.686 Y86.185
G0 X51.686 Y87.47
G0 X51.686 Y92.548
G0 X51.779 Y92.514
;TYPE:WALL-INNER
G11
G1 F1800 X51.881 Y92.728 E411.00365
G1 X52.014 Y92.918 E411.03148
G1 X52.179 Y93.085 E411.05965
G1 X52.375 Y93.222 E411.08835
G1 X52.589 Y93.321 E411.11664
G1 X52.815 Y93.383 E411.14476
G1 X53.05 Y93.402 E411.17305
G1 X53.284 Y93.383 E411.20123
G1 X53.514 Y93.321 E411.22981
G1 X53.726 Y93.221 E411.25794
G1 X53.919 Y93.087 E411.28614
G1 X54.087 Y92.919 E411.31465
G1 X54.221 Y92.726 E411.34284
G1 X54.321 Y92.514 E411.37097
G1 X54.383 Y92.284 E411.39955
G1 X54.402 Y92.05 E411.42773
G1 X54.383 Y91.815 E411.45602
G1 X54.321 Y91.589 E411.48414
G1 X54.222 Y91.375 E411.51244
G1 X54.085 Y91.179 E411.54113
G1 X53.918 Y91.014 E411.5693
G1 X53.728 Y90.881 E411.59713
G1 X53.514 Y90.779 E411.62558
G1 X53.284 Y90.719 E411.65411
G1 X53.05 Y90.697 E411.68231
G1 X52.815 Y90.719 E411.71063
G1 X52.589 Y90.778 E411.73866
G1 X52.373 Y90.88 E411.76733
G1 X52.181 Y91.015 E411.79549
G1 X52.015 Y91.181 E411.82366
G1 X51.88 Y91.373 E411.85183
G1 X51.778 Y91.589 E411.88049
G1 X51.719 Y91.815 E411.90852
G1 X51.697 Y92.05 E411.93684
G1 X51.719 Y92.284 E411.96505
G1 X51.779 Y92.514 E411.99357
G0 F3600 X51.686 Y92.548
G0 X50.749 Y95.569
